build/img/icon-stopwatch.svg

<svg width="30" height="37" viewBox="0 0 30 37" fill="none" xmlns="http://www.w3.org/2000/svg">
<path d="M3.7402 12.3638L2.23926 10.8724C1.42383 10.0626 1.42383 8.74442 2.23926 7.93407C3.05469 7.12399 4.38159 7.12399 5.19702 7.93407L6.79955 9.5261C8.47126 8.36942 10.3769 7.5688 12.3735 7.1846V5.11853H10.9791C10.594 5.11853 10.2819 4.80846 10.2819 4.42587V2.62497C10.2819 1.47911 11.2201 0.546997 12.3735 0.546997H17.9514C19.1048 0.546997 20.043 1.47911 20.043 2.62497V4.42587C20.043 4.80846 19.7309 5.11853 19.3458 5.11853H17.9514V7.1846C19.9477 7.56853 21.8536 8.36942 23.5254 9.5261L25.1279 7.93407C25.943 7.12399 27.2699 7.12399 28.0856 7.93407C28.9011 8.74415 28.9011 10.0624 28.0856 10.8724L26.5847 12.3638C28.6652 14.9383 29.8042 18.1451 29.8042 21.4652C29.8042 29.4857 23.2358 36.011 15.1625 36.011C7.08906 36.011 0.520704 29.4857 0.520704 21.4652C0.520704 18.1451 1.65969 14.9383 3.7402 12.3638ZM4.2111 8.91353C3.93902 8.6435 3.49699 8.64377 3.22518 8.91353C2.95364 9.18356 2.95364 9.62296 3.22518 9.89299L4.66593 11.324C4.99058 10.9929 5.33102 10.6771 5.68508 10.3781L4.2111 8.91353ZM18.6486 2.62497C18.6486 2.24292 18.3359 1.93231 17.9514 1.93231H12.3735C11.989 1.93231 11.6763 2.24292 11.6763 2.62497V3.73322H18.6486V2.62497ZM13.768 5.11853V6.98492C14.6921 6.89887 15.6325 6.89887 16.5569 6.98492V5.11853H13.768ZM27.0997 8.91353C26.8279 8.64377 26.3856 8.6435 26.1138 8.91353L24.6398 10.3781C24.9939 10.6771 25.3343 10.9929 25.659 11.324L27.0997 9.89299C27.3713 9.62296 27.3713 9.18356 27.0997 8.91353ZM15.1625 34.6257C22.467 34.6257 28.4097 28.7219 28.4097 21.4652C28.4097 18.2641 27.24 15.1799 25.1162 12.7802C24.5312 12.1192 23.8783 11.5153 23.1759 10.9845C21.4157 9.65381 19.3322 8.77798 17.1506 8.4514C16.4978 8.35426 15.8289 8.30475 15.1625 8.30475C14.496 8.30475 13.8271 8.35426 13.1745 8.4514C10.9927 8.77798 8.9092 9.65381 7.14871 10.9845C6.44658 11.5153 5.79375 12.1192 5.20873 12.7802C3.08492 15.1799 1.91516 18.2641 1.91516 21.4652C1.91516 28.7219 7.85792 34.6257 15.1625 34.6257Z" fill="#00B2FF"/>
<path d="M15.1622 23.5431C14.0088 23.5431 13.0705 22.611 13.0705 21.4652C13.0705 20.5623 13.6534 19.7922 14.465 19.5062V14.5386C14.465 14.156 14.7771 13.8459 15.1622 13.8459C15.5473 13.8459 15.8595 14.156 15.8595 14.5386V19.5062C16.6711 19.7922 17.2539 20.5623 17.2539 21.4652C17.2539 22.611 16.3156 23.5431 15.1622 23.5431ZM15.1622 20.7725C14.7777 20.7725 14.465 21.0831 14.465 21.4652C14.465 21.8472 14.7777 22.1578 15.1622 22.1578C15.5468 22.1578 15.8595 21.8472 15.8595 21.4652C15.8595 21.0831 15.5468 20.7725 15.1622 20.7725Z" fill="#00B2FF"/>
<path d="M7.73485 14.1576C7.74574 14.1449 7.75664 14.1322 7.76889 14.1203C7.78197 14.107 7.79586 14.0951 7.80975 14.0832C9.03861 12.8754 10.5567 11.9817 12.2042 11.4985C12.5738 11.3902 12.9613 11.5997 13.0703 11.9666C13.1792 12.3335 12.9684 12.7187 12.5991 12.827C11.3784 13.1852 10.2397 13.8043 9.26902 14.6309L9.73938 15.0981C10.0115 15.3687 10.0115 15.8073 9.73938 16.0779C9.6032 16.2131 9.42481 16.2808 9.24614 16.2808C9.06775 16.2808 8.88936 16.2131 8.75318 16.0779L8.28174 15.6095C7.02019 17.0668 6.27095 18.8607 6.12497 20.7725H6.7955C7.18061 20.7725 7.49273 21.0828 7.49273 21.4652C7.49273 21.8477 7.18061 22.1578 6.7955 22.1578H6.12497C6.27095 24.0699 7.02019 25.8635 8.28174 27.3208L8.75318 26.8525C9.02554 26.5822 9.46702 26.5822 9.73938 26.8525C10.0117 27.123 10.0117 27.5616 9.73938 27.8322L9.26793 28.3005C10.7348 29.5538 12.5405 30.2981 14.465 30.4434V29.777C14.465 29.3944 14.7771 29.0844 15.1622 29.0844C15.5473 29.0844 15.8594 29.3944 15.8594 29.777V30.4432C17.7839 30.2981 19.5896 29.5538 21.0565 28.3005L20.5851 27.8322C20.3127 27.5616 20.3127 27.123 20.5851 26.8525C20.8574 26.5822 21.2989 26.5822 21.5712 26.8525L22.0427 27.3208C23.3042 25.8635 24.0535 24.0696 24.1995 22.1578H23.5289C23.1438 22.1578 22.8317 21.8477 22.8317 21.4652C22.8317 21.0826 23.1438 20.7725 23.5289 20.7725H24.1995C24.0535 18.8607 23.3042 17.0668 22.0427 15.6095L21.5712 16.0779C21.4351 16.2131 21.2567 16.2808 21.0783 16.2808C20.8996 16.2808 20.7212 16.2131 20.5851 16.0779C20.313 15.8073 20.313 15.3687 20.5851 15.0981L21.0554 14.6309C20.0847 13.804 18.946 13.1852 17.7253 12.827C17.356 12.7187 17.1452 12.3335 17.2542 11.9666C17.3631 11.5997 17.7504 11.3905 18.1203 11.4985C19.7674 11.9814 21.285 12.8749 22.5136 14.0821C22.528 14.0943 22.5422 14.1068 22.5555 14.12C22.5675 14.1319 22.5781 14.1444 22.589 14.1568C24.5443 16.1174 25.6206 18.7105 25.6206 21.4652C25.6206 24.2195 24.5443 26.8124 22.5896 28.7727C22.5787 28.7854 22.5678 28.7981 22.5555 28.81C22.5436 28.8222 22.531 28.8327 22.5185 28.8436C20.545 30.7857 17.935 31.855 15.1622 31.855C12.3897 31.855 9.77968 30.786 7.80648 28.8441C7.79368 28.833 7.78088 28.8222 7.76889 28.81C7.75691 28.7984 7.74629 28.7857 7.7354 28.7735C5.78017 26.8129 4.70382 24.2198 4.70382 21.4652C4.70382 18.7108 5.78017 16.1179 7.73485 14.1576Z" fill="#00B2FF"/>
<path d="M15.1621 12.4606C14.7773 12.4606 14.4649 12.1503 14.4649 11.768C14.4649 11.3857 14.7773 11.0753 15.1621 11.0753C15.547 11.0753 15.8594 11.3857 15.8594 11.768C15.8594 12.1503 15.547 12.4606 15.1621 12.4606Z" fill="#00B2FF"/>
</svg>

<svg width="30" height="37" fill="none" xmlns="http://www.w3.org/2000/svg"><path d="M3.74 12.364l-1.5-1.492a2.07 2.07 0 010-2.938 2.104 2.104 0 012.957 0L6.8 9.526a14.696 14.696 0 015.574-2.341V5.119h-1.395a.695.695 0 01-.697-.693V2.625c0-1.146.938-2.078 2.091-2.078h5.578c1.154 0 2.092.932 2.092 2.078v1.8a.695.695 0 01-.697.694H17.95v2.066a14.695 14.695 0 015.574 2.341l1.603-1.592a2.104 2.104 0 012.958 0 2.07 2.07 0 010 2.938l-1.501 1.492a14.471 14.471 0 013.22 9.101c0 8.02-6.57 14.546-14.643 14.546S.521 29.486.521 21.465c0-3.32 1.139-6.527 3.22-9.101zm.471-3.45a.701.701 0 00-.986 0 .69.69 0 000 .979l1.44 1.431c.326-.331.666-.647 1.02-.946L4.211 8.914zM18.65 2.625a.696.696 0 00-.698-.693h-5.578a.696.696 0 00-.697.693v1.108h6.973V2.625zm-4.881 2.494v1.866a15.097 15.097 0 012.789 0V5.119h-2.789zM27.1 8.914a.701.701 0 00-.986 0l-1.474 1.464c.354.3.694.615 1.019.946l1.44-1.431a.69.69 0 000-.98zM15.162 34.626c7.305 0 13.248-5.904 13.248-13.16 0-3.202-1.17-6.286-3.294-8.686a13.281 13.281 0 00-9.954-4.475 13.283 13.283 0 00-9.954 4.475 13.095 13.095 0 00-3.293 8.685c0 7.257 5.943 13.16 13.247 13.16z"/><path d="M15.162 23.543a2.087 2.087 0 01-2.092-2.078c0-.903.583-1.673 1.395-1.959V14.54c0-.383.312-.693.697-.693.385 0 .697.31.697.693v4.967a2.082 2.082 0 011.395 1.96 2.087 2.087 0 01-2.092 2.077zm0-2.77a.696.696 0 00-.697.692c0 .382.313.693.697.693.385 0 .697-.31.697-.693a.696.696 0 00-.697-.692z"/><path d="M7.735 14.158a.55.55 0 01.034-.038l.04-.037a10.51 10.51 0 014.395-2.585.692.692 0 11.395 1.329 9.105 9.105 0 00-3.33 1.804l.47.467a.69.69 0 010 .98.698.698 0 01-.986 0l-.471-.468a8.89 8.89 0 00-2.157 5.163h.67c.386 0 .698.31.698.692a.695.695 0 01-.698.693h-.67a8.889 8.889 0 002.157 5.163l.471-.469a.701.701 0 01.986 0 .69.69 0 010 .98l-.471.468a9.012 9.012 0 005.197 2.143v-.666c0-.383.312-.693.697-.693.385 0 .697.31.697.693v.666a9.01 9.01 0 005.197-2.143l-.47-.468a.69.69 0 010-.98.7.7 0 01.985 0l.472.469a8.89 8.89 0 002.157-5.163h-.671a.695.695 0 01-.697-.693c0-.382.312-.692.697-.692h.67a8.89 8.89 0 00-2.156-5.163l-.472.468a.697.697 0 01-.986 0 .69.69 0 010-.98l.47-.467a9.1 9.1 0 00-3.33-1.804.692.692 0 11.395-1.329 10.508 10.508 0 014.435 2.622l.034.037a10.284 10.284 0 013.032 7.308c0 2.755-1.077 5.347-3.031 7.308a.541.541 0 01-.035.037c-.011.012-.024.023-.037.034a10.422 10.422 0 01-7.356 3.011 10.421 10.421 0 01-7.356-3.01l-.037-.035-.034-.037a10.284 10.284 0 01-3.031-7.308c0-2.754 1.076-5.347 3.03-7.307z"/><path d="M15.162 12.46a.695.695 0 01-.697-.692c0-.382.312-.693.697-.693.385 0 .697.31.697.693a.695.695 0 01-.697.693z"/></svg>
